local/share/icons/dracula-icons-main/scalable/apps/accessories-thesaurus.svg

<?xml version="1.0" encoding="UTF-8"?>
<svg xmlns="http://www.w3.org/2000/svg" xmlns:xlink="http://www.w3.org/1999/xlink" width="64" height="64" viewBox="0 0 64 64">
<defs>
<filter id="filter-remove-color" x="0%" y="0%" width="100%" height="100%">
<feColorMatrix color-interpolation-filters="sRGB" values="0 0 0 0 1 0 0 0 0 1 0 0 0 0 1 0 0 0 1 0" />
</filter>
<mask id="mask-0">
<g filter="url(#filter-remove-color)">
<rect x="-6.4" y="-6.4" width="76.8" height="76.8" fill="rgb(0%, 0%, 0%)" fill-opacity="0.25"/>
</g>
</mask>
<clipPath id="clip-0">
<rect x="0" y="0" width="17" height="17"/>
</clipPath>
<g id="source-173" clip-path="url(#clip-0)">
<path fill-rule="nonzero" fill="rgb(0%, 0%, 0%)" fill-opacity="1" d="M 8.464844 15.082031 C 12.121094 15.082031 15.082031 12.121094 15.082031 8.464844 C 15.082031 4.8125 12.121094 1.851562 8.464844 1.851562 C 4.8125 1.851562 1.851562 4.8125 1.851562 8.464844 C 1.851562 12.121094 4.8125 15.082031 8.464844 15.082031 Z M 8.464844 15.082031 "/>
</g>
</defs>
<path fill-rule="nonzero" fill="rgb(88.235294%, 54.117647%, 31.372549%)" fill-opacity="1" d="M 8.464844 15.609375 C 12.410156 15.609375 15.609375 12.410156 15.609375 8.464844 C 15.609375 4.519531 12.410156 1.324219 8.464844 1.324219 C 4.519531 1.324219 1.324219 4.519531 1.324219 8.464844 C 1.324219 12.410156 4.519531 15.609375 8.464844 15.609375 Z M 8.464844 15.609375 "/>
<g mask="url(#mask-0)">
<use xlink:href="#source-173"/>
</g>
<path fill-rule="nonzero" fill="rgb(100%, 100%, 100%)" fill-opacity="1" d="M 8.464844 2.382812 C 5.105469 2.382812 2.382812 5.105469 2.382812 8.464844 C 2.382812 11.476562 4.566406 13.976562 7.441406 14.464844 L 14.464844 7.441406 C 13.976562 4.566406 11.476562 2.382812 8.464844 2.382812 Z M 8.464844 2.382812 "/>
<path fill-rule="evenodd" fill="rgb(0.784314%, 40%, 70.196078%)" fill-opacity="1" d="M 8.464844 0.792969 C 7.839844 0.792969 7.296875 1.234375 7.171875 1.851562 L 7.71875 1.851562 C 7.832031 1.535156 8.128906 1.324219 8.464844 1.324219 C 8.800781 1.324219 9.101562 1.535156 9.214844 1.851562 L 9.761719 1.851562 C 9.636719 1.238281 9.09375 0.792969 8.464844 0.792969 Z M 8.464844 0.792969 "/>
<path fill-rule="evenodd" fill="rgb(27.45098%, 66.27451%, 93.333333%)" fill-opacity="1" d="M 6.085938 3.175781 C 6.085938 3.175781 6.425781 1.585938 7.105469 1.585938 L 9.828125 1.585938 C 10.507812 1.585938 10.847656 3.175781 10.847656 3.175781 Z M 6.085938 3.175781 "/>
<path fill-rule="evenodd" fill="rgb(0%, 0%, 0%)" fill-opacity="0.961" stroke-width="0.265" stroke-linecap="butt" stroke-linejoin="miter" stroke="rgb(52.941176%, 52.941176%, 52.941176%)" stroke-opacity="0.961" stroke-miterlimit="4" d="M 7.011719 5.292969 L 8.863281 5.292969 M 5.421875 6.347656 L 6.21875 6.347656 M 8.597656 6.347656 L 9.390625 6.347656 M 7.539062 7.410156 L 8.335938 7.410156 M 6.746094 8.464844 L 7.539062 8.464844 M 6.484375 9.523438 L 7.277344 9.523438 M 6.484375 6.347656 L 7.011719 6.347656 M 5.421875 7.410156 L 7.277344 7.410156 M 7.804688 8.464844 L 9.65625 8.464844 M 5.953125 8.464844 L 6.484375 8.464844 M 7.539062 9.523438 L 8.863281 9.523438 M 5.421875 9.523438 L 6.21875 9.523438 M 5.421875 8.464844 L 5.6875 8.464844 M 7.277344 6.347656 L 7.539062 6.347656 M 9.390625 9.523438 L 9.921875 9.523438 M 7.804688 6.347656 L 8.070312 6.347656 M 8.597656 7.410156 L 8.863281 7.410156 M 9.128906 7.410156 L 9.390625 7.410156 M 9.65625 5.292969 L 10.1875 5.292969 M 9.65625 6.347656 L 10.1875 6.347656 M 10.1875 7.410156 L 11.507812 7.410156 M 10.449219 8.464844 L 10.714844 8.464844 M 10.980469 8.464844 L 11.246094 8.464844 M 10.449219 6.347656 L 10.714844 6.347656 M 7.011719 10.582031 L 7.804688 10.582031 M 6.746094 11.640625 L 7.539062 11.640625 M 5.421875 10.582031 L 6.746094 10.582031 M 5.953125 11.640625 L 6.484375 11.640625 M 5.421875 11.640625 L 5.6875 11.640625 M 8.070312 10.582031 L 8.335938 10.582031 M 8.597656 10.582031 L 8.863281 10.582031 M 7.804688 11.640625 L 8.597656 11.640625 M 10.714844 5.292969 L 11.246094 5.292969 "/>
<path fill-rule="nonzero" fill="rgb(90.196078%, 90.196078%, 90.196078%)" fill-opacity="1" d="M 7.441406 14.464844 L 14.464844 7.441406 C 14.128906 7.382812 13.789062 7.351562 13.4375 7.351562 C 10.078125 7.351562 7.351562 10.078125 7.351562 13.4375 C 7.351562 13.789062 7.382812 14.128906 7.441406 14.464844 Z M 7.441406 14.464844 "/>
</svg>

<svg width="64" height="64" version="1.1" viewBox="0 0 16.933 16.933" xmlns="http://www.w3.org/2000/svg" xmlns:xlink="http://www.w3.org/1999/xlink">
 <path class="shp36" d="m8.4665 15.61c3.9452 0 7.1436-3.1984 7.1436-7.1436 0-3.9452-3.1984-7.1436-7.1436-7.1436-3.9452 0-7.1436 3.1984-7.1436 7.1436 0 3.9452 3.1984 7.1436 7.1436 7.1436z" fill="#e18a50" stroke-width=".53799"/>
 <path class="shp36" d="m8.4665 15.081c3.653 0 6.6145-2.9615 6.6145-6.6145 0-3.653-2.9615-6.6145-6.6145-6.6145-3.653 0-6.6145 2.9615-6.6145 6.6145 0 3.653 2.9615 6.6145 6.6145 6.6145z" opacity=".25" stroke-width=".57477"/>
 <path d="m8.4665 2.3812c-3.3607 0-6.0853 2.7246-6.0853 6.0853 0 3.0106 2.1871 5.509 5.0585 5.9975l7.0243-7.0243c-0.48833-2.8715-2.9868-5.0585-5.9975-5.0585z" fill="#fff" stroke-width=".59776"/>
 <g fill-rule="evenodd">
  <path d="m8.4665 0.79373a1.3229 1.3229 0 0 0-1.296 1.0583h0.54879a0.79373 0.79373 0 0 1 0.74722-0.52916 0.79373 0.79373 0 0 1 0.74775 0.52916h0.54725a1.3229 1.3229 0 0 0-1.295-1.0583z" fill="#0266b3" stroke-width=".26458" style="paint-order:stroke fill markers"/>
  <path d="m6.0853 3.1749s0.33945-1.5875 1.0183-1.5875h2.7257c0.67888 0 1.0183 1.5875 1.0183 1.5875z" fill="#46a9ee" stroke-width=".26458"/>
  <path d="m7.0115 5.2915h1.852m-3.44 1.058h0.794m2.381 0h0.794m-1.852 1.059h0.794m-1.587 1.058h0.793m-1.058 1.058h0.793m-0.793-3.175h0.529m-1.588 1.059h1.852m0.53 1.058h1.852m-3.705 0h0.53m1.058 1.058h1.323m-3.44 0h0.794m-0.794-1.058h0.265m1.587-2.117h0.265m1.852 3.175h0.53m-2.117-3.175h0.264m0.529 1.059h0.265m0.264 0h0.265m0.265-2.117h0.529m-0.529 1.058h0.529m0 1.059h1.323m-1.059 1.058h0.265m0.265 0h0.264m-0.794-2.117h0.265m-3.704 4.234h0.793m-1.057 1.058h0.793m-2.117-1.058h1.324m-0.795 1.058h0.53m-1.059 0h0.265m2.381-1.058h0.265m0.264 0h0.265m-1.058 1.058h0.793m2.117-6.35h0.53" fill-opacity=".961" stroke="#878787" stroke-opacity=".961" stroke-width=".265"/>
 </g>
 <path d="m7.4397 14.464 7.0243-7.0243c-0.334-0.0568-0.6766-0.087848-1.0268-0.087848-3.3607 0-6.0853 2.7246-6.0853 6.0853 0 0.35017 0.031048 0.6928 0.087848 1.0268z" fill="#e6e6e6" stroke-width=".59776"/>
</svg>
